resources/public/ociolookMain/v005/jp03_john_ociolookMain_v005.cube
LUT_1D_SIZE 4096

0.0000000000 0.0000000000 0.0000000000
0.0000001460 0.0000001460 0.0000001460
0.0000006708 0.0000006708 0.0000006708
0.0000016367 0.0000016367 0.0000016367
0.0000030820 0.0000030820 0.0000030820
0.0000050354 0.0000050354 0.0000050354
0.0000075203 0.0000075203 0.0000075203
0.0000105565 0.0000105565 0.0000105565
0.0000141613 0.0000141613 0.0000141613
0.0000183501 0.0000183501 0.0000183501
0.0000231368 0.0000231368 0.0000231368
0.0000285343 0.0000285343 0.0000285343
0.0000345543 0.0000345543 0.0000345543
0.0000412078 0.0000412078 0.0000412078
0.0000485049 0.0000485049 0.0000485049
0.0000564553 0.0000564553 0.0000564553
0.0000650681 0.0000650681 0.0000650681
0.0000743518 0.0000743518 0.0000743518
0.0000843147 0.0000843147 0.0000843147
0.0000949646 0.0000949646 0.0000949646
0.0001063090 0.0001063090 0.0001063090
0.0001183549 0.0001183549 0.0001183549
0.0001311094 0.0001311094 0.0001311094
0.0001445790 0.0001445790 0.0001445790
0.0001587701 0.0001587701 0.0001587701
0.0001736888 0.0001736888 0.0001736888
0.0001893413 0.0001893413 0.0001893413
0.0002057331 0.0002057331 0.0002057331
0.0002228700 0.0002228700 0.0002228700
0.0002407573 0.0002407573 0.0002407573
0.0002594004 0.0002594004 0.0002594004
0.0002788044 0.0002788044 0.0002788044
0.0002989743 0.0002989743 0.0002989743
0.0003199150 0.0003199150 0.0003199150
0.0003416312 0.0003416312 0.0003416312
0.0003641276 0.0003641276 0.0003641276
0.0003874087 0.0003874087 0.0003874087
0.0004114790 0.0004114790 0.0004114790
0.0004363428 0.0004363428 0.0004363428
0.0004620043 0.0004620043 0.0004620043
0.0004884678 0.0004884678 0.0004884678
0.0005157371 0.0005157371 0.0005157371
0.0005438165 0.0005438165 0.0005438165
0.0005727097 0.0005727097 0.0005727097
0.0006024206 0.0006024206 0.0006024206
0.0006329530 0.0006329530 0.0006329530
0.0006643106 0.0006643106 0.0006643106
0.0006964969 0.0006964969 0.0006964969
0.0007295157 0.0007295157 0.0007295157
0.0007633704 0.0007633704 0.0007633704
0.0007980644 0.0007980644 0.0007980644
0.0008336012 0.0008336012 0.0008336012
0.0008699840 0.0008699840 0.0008699840
0.0009072163 0.0009072163 0.0009072163
0.0009453012 0.0009453012 0.0009453012
0.0009842419 0.0009842419 0.0009842419
0.0010240416 0.0010240416 0.0010240416
0.0010647033 0.0010647033 0.0010647033
0.0011062302 0.0011062302 0.0011062302
0.0011486252 0.0011486252 0.0011486252
0.0011918914 0.0011918914 0.0011918914
0.0012360316 0.0012360316 0.0012360316
0.0012810487 0.0012810487 0.0012810487
0.0013269456 0.0013269456 0.0013269456
0.0013737252 0.0013737252 0.0013737252
0.0014213902 0.0014213902 0.0014213902
0.0014699433 0.0014699433 0.0014699433
0.0015193873 0.0015193873 0.0015193873
0.0015697248 0.0015697248 0.0015697248
0.0016209586 0.0016209586 0.0016209586
0.0016730912 0.0016730912 0.0016730912
0.0017261252 0.0017261252 0.0017261252
0.0017800632 0.0017800632 0.0017800632
0.0018349077 0.0018349077 0.0018349077
0.0018906612 0.0018906612 0.0018906612
0.0019473262 0.0019473262 0.0019473262
0.0020049051 0.0020049051 0.0020049051
0.0020634004 0.0020634004 0.0020634004
0.0021228145 0.0021228145 0.0021228145
0.0021831497 0.0021831497 0.0021831497
0.0022444084 0.0022444084 0.0022444084
0.0023065930 0.0023065930 0.0023065930
0.0023697056 0.0023697056 0.0023697056
0.0024337486 0.0024337486 0.0024337486
0.0024987244 0.0024987244 0.0024987244
0.0025646350 0.0025646350 0.0025646350
0.0026314827 0.0026314827 0.0026314827
0.0026992697 0.0026992697 0.0026992697
0.0027679982 0.0027679982 0.0027679982
0.0028376703 0.0028376703 0.0028376703
0.0029082882 0.0029082882 0.0029082882
0.0029798540 0.0029798540 0.0029798540
0.0030523697 0.0030523697 0.0030523697
0.0031258376 0.0031258376 0.0031258376
0.0032002595 0.0032002595 0.0032002595
0.0032756376 0.0032756376 0.0032756376
0.0033519739 0.0033519739 0.0033519739
0.0034292704 0.0034292704 0.0034292704
0.0035075291 0.0035075291 0.0035075291
0.0035867520 0.0035867520 0.0035867520
0.0036669410 0.0036669410 0.0036669410
0.0037480980 0.0037480980 0.0037480980
0.0038302251 0.0038302251 0.0038302251
0.0039133241 0.0039133241 0.0039133241
0.0039973969 0.0039973969 0.0039973969
0.0040824453 0.0040824453 0.0040824453
0.0041684714 0.0041684714 0.0041684714
0.0042554768 0.0042554768 0.0042554768
0.0043434636 0.0043434636 0.0043434636
0.0044324334 0.0044324334 0.0044324334
0.0045223881 0.0045223881 0.0045223881
0.0046133295 0.0046133295 0.0046133295
0.0047052594 0.0047052594 0.0047052594
0.0047981796 0.0047981796 0.0047981796
0.0048920917 0.0048920917 0.0048920917
0.0049869977 0.0049869977 0.0049869977
0.0050828992 0.0050828992 0.0050828992
0.0051797979 0.0051797979 0.0051797979
0.0052776956 0.0052776956 0.0052776956
0.0053765939 0.0053765939 0.0053765939
0.0054764946 0.0054764946 0.0054764946
0.0055773993 0.0055773993 0.0055773993
0.0056793096 0.0056793096 0.0056793096
0.0057822274 0.0057822274 0.0057822274
0.0058861541 0.0058861541 0.0058861541
0.0059910915 0.0059910915 0.0059910915
0.0060970411 0.0060970411 0.0060970411
0.0062040045 0.0062040045 0.0062040045
0.0063119835 0.0063119835 0.0063119835
0.0064209795 0.0064209795 0.0064209795
0.0065309942 0.0065309942 0.0065309942
0.0066420290 0.0066420290 0.0066420290
0.0067540857 0.0067540857 0.0067540857
0.0068671658 0.0068671658 0.0068671658
0.0069812707 0.0069812707 0.0069812707
0.0070964020 0.0070964020 0.0070964020
0.0072125613 0.0072125613 0.0072125613
0.0073297501 0.0073297501 0.0073297501
0.0074479699 0.0074479699 0.0074479699
0.0075672221 0.0075672221 0.0075672221
0.0076875083 0.0076875083 0.0076875083
0.0078088300 0.0078088300 0.0078088300
0.0079311886 0.0079311886 0.0079311886
0.0080545856 0.0080545856 0.0080545856
0.0081790225 0.0081790225 0.0081790225
0.0083045007 0.0083045007 0.0083045007
0.0084310216 0.0084310216 0.0084310216
0.0085585867 0.0085585867 0.0085585867
0.0086871975 0.0086871975 0.0086871975
0.0088168552 0.0088168552 0.0088168552
0.0089475615 0.0089475615 0.0089475615
0.0090793175 0.0090793175 0.0090793175
0.0092121248 0.0092121248 0.0092121248
0.0093459848 0.0093459848 0.0093459848
0.0094808987 0.0094808987 0.0094808987
0.0096168680 0.0096168680 0.0096168680
0.0097538941 0.0097538941 0.0097538941
0.0098919783 0.0098919783 0.0098919783
0.0100311220 0.0100311220 0.0100311220
0.0101713265 0.0101713265 0.0101713265
0.0103125931 0.0103125931 0.0103125931
0.0104549232 0.0104549232 0.0104549232
0.0105983181 0.0105983181 0.0105983181
0.0107427792 0.0107427792 0.0107427792
0.0108883077 0.0108883077 0.0108883077
0.0110349050 0.0110349050 0.0110349050
0.0111825723 0.0111825723 0.0111825723
0.0113313109 0.0113313109 0.0113313109
0.0114811222 0.0114811222 0.0114811222
0.0116320074 0.0116320074 0.0116320074
0.0117839678 0.0117839678 0.0117839678
0.0119370047 0.0119370047 0.0119370047
0.0120911192 0.0120911192 0.0120911192
0.0122463128 0.0122463128 0.0122463128
0.0124025866 0.0124025866 0.0124025866
0.0125599418 0.0125599418 0.0125599418
0.0127183798 0.0127183798 0.0127183798
0.0128779017 0.0128779017 0.0128779017
0.0130385088 0.0130385088 0.0130385088
0.0132002023 0.0132002023 0.0132002023
0.0133629835 0.0133629835 0.0133629835
0.0135268535 0.0135268535 0.0135268535
0.0136918135 0.0136918135 0.0136918135
0.0138578647 0.0138578647 0.0138578647
0.0140250084 0.0140250084 0.0140250084
0.0141932458 0.0141932458 0.0141932458
0.0143625779 0.0143625779 0.0143625779
0.0145330061 0.0145330061 0.0145330061
0.0147045314 0.0147045314 0.0147045314
0.0148771551 0.0148771551 0.0148771551
0.0150508782 0.0150508782 0.0150508782
0.0152257021 0.0152257021 0.0152257021
0.0154016278 0.0154016278 0.0154016278
0.0155786564 0.0155786564 0.0155786564
0.0157567892 0.0157567892 0.0157567892
0.0159360273 0.0159360273 0.0159360273
0.0161163718 0.0161163718 0.0161163718
0.0162978238 0.0162978238 0.0162978238
0.0164803845 0.0164803845 0.0164803845
0.0166640549 0.0166640549 0.0166640549
0.0168488363 0.0168488363 0.0168488363
0.0170347297 0.0170347297 0.0170347297
0.0172217362 0.0172217362 0.0172217362
0.0174098570 0.0174098570 0.0174098570
0.0175990931 0.0175990931 0.0175990931
0.0177894456 0.0177894456 0.0177894456
0.0179809157 0.0179809157 0.0179809157
0.0181735044 0.0181735044 0.0181735044
0.0183672128 0.0183672128 0.0183672128
0.0185620419 0.0185620419 0.0185620419
0.0187579930 0.0187579930 0.0187579930
0.0189550669 0.0189550669 0.0189550669
0.0191532649 0.0191532649 0.0191532649
0.0193525879 0.0193525879 0.0193525879
0.0195530370 0.0195530370 0.0195530370
0.0197546133 0.0197546133 0.0197546133
0.0199573178 0.0199573178 0.0199573178
0.0201611516 0.0201611516 0.0201611516
0.0203661157 0.0203661157 0.0203661157
0.0205722111 0.0205722111 0.0205722111
0.0207794390 0.0207794390 0.0207794390
0.0209878003 0.0209878003 0.0209878003
0.0211972960 0.0211972960 0.0211972960
0.0214079272 0.0214079272 0.0214079272
0.0216196949 0.0216196949 0.0216196949
0.0218326001 0.0218326001 0.0218326001
0.0220466438 0.0220466438 0.0220466438
0.0222618271 0.0222618271 0.0222618271
0.0224781510 0.0224781510 0.0224781510
0.0226956163 0.0226956163 0.0226956163
0.0229142243 0.0229142243 0.0229142243
0.0231339758 0.0231339758 0.0231339758
0.0233548718 0.0233548718 0.0233548718
0.0235769133 0.0235769133 0.0235769133
0.0238001014 0.0238001014 0.0238001014
0.0240244369 0.0240244369 0.0240244369
0.0242499209 0.0242499209 0.0242499209
0.0244765544 0.0244765544 0.0244765544
0.0247043383 0.0247043383 0.0247043383
0.0249332736 0.0249332736 0.0249332736
0.0251633612 0.0251633612 0.0251633612
0.0253946022 0.0253946022 0.0253946022
0.0256269974 0.0256269974 0.0256269974
0.0258605479 0.0258605479 0.0258605479
0.0260952546 0.0260952546 0.0260952546
0.0263311184 0.0263311184 0.0263311184
0.0265681403 0.0265681403 0.0265681403
0.0268063212 0.0268063212 0.0268063212
0.0270456621 0.0270456621 0.0270456621
0.0272861639 0.0272861639 0.0272861639
0.0275278276 0.0275278276 0.0275278276
0.0277706540 0.0277706540 0.0277706540
0.0280146441 0.0280146441 0.0280146441
0.0282597989 0.0282597989 0.0282597989
0.0285061192 0.0285061192 0.0285061192
0.0287536060 0.0287536060 0.0287536060
0.0290022602 0.0290022602 0.0290022602
0.0292520826 0.0292520826 0.0292520826
0.0295030743 0.0295030743 0.0295030743
0.0297552361 0.0297552361 0.0297552361
0.0300085690 0.0300085690 0.0300085690
0.0302630738 0.0302630738 0.0302630738
0.0305187514 0.0305187514 0.0305187514
0.0307756027 0.0307756027 0.0307756027
0.0310336287 0.0310336287 0.0310336287
0.0312928302 0.0312928302 0.0312928302
0.0315532080 0.0315532080 0.0315532080
0.0318147632 0.0318147632 0.0318147632
0.0320774966 0.0320774966 0.0320774966
0.0323414090 0.0323414090 0.0323414090
0.0326065013 0.0326065013 0.0326065013
0.0328727745 0.0328727745 0.0328727745
0.0331402293 0.0331402293 0.0331402293
0.0334088667 0.0334088667 0.0334088667
0.0336786875 0.0336786875 0.0336786875
0.0339496926 0.0339496926 0.0339496926
0.0342218829 0.0342218829 0.0342218829
0.0344952592 0.0344952592 0.0344952592
0.0347698223 0.0347698223 0.0347698223
0.0350455732 0.0350455732 0.0350455732
0.0353225126 0.0353225126 0.0353225126
0.0356006415 0.0356006415 0.0356006415
0.0358799607 0.0358799607 0.0358799607
0.0361604710 0.0361604710 0.0361604710
0.0364421732 0.0364421732 0.0364421732
0.0367250683 0.0367250683 0.0367250683
0.0370091570 0.0370091570 0.0370091570
0.0372944402 0.0372944402 0.0372944402
0.0375809188 0.0375809188 0.0375809188
0.0378685934 0.0378685934 0.0378685934
0.0381574651 0.0381574651 0.0381574651
0.0384475346 0.0384475346 0.0384475346
0.0387388027 0.0387388027 0.0387388027
0.0390312702 0.0390312702 0.0390312702
0.0393249381 0.0393249381 0.0393249381
0.0396198070 0.0396198070 0.0396198070
0.0399158778 0.0399158778 0.0399158778
0.0402131514 0.0402131514 0.0402131514
0.0405105372 0.0405105372 0.0405105372
0.0408042926 0.0408042926 0.0408042926
0.0410979661 0.0410979661 0.0410979661
0.0413915580 0.0413915580 0.0413915580
0.0416850687 0.0416850687 0.0416850687
0.0419784984 0.0419784984 0.0419784984
0.0422718474 0.0422718474 0.0422718474
0.0425651160 0.0425651160 0.0425651160
0.0428583045 0.0428583045 0.0428583045
0.0431514131 0.0431514131 0.0431514131
0.0434444422 0.0434444422 0.0434444422
0.0437373920 0.0437373920 0.0437373920
0.0440302628 0.0440302628 0.0440302628
0.0443230549 0.0443230549 0.0443230549
0.0446157686 0.0446157686 0.0446157686
0.0449084041 0.0449084041 0.0449084041
0.0452009617 0.0452009617 0.0452009617
0.0454934417 0.0454934417 0.0454934417
0.0457858443 0.0457858443 0.0457858443
0.0460781697 0.0460781697 0.0460781697
0.0463704184 0.0463704184 0.0463704184
0.0466625905 0.0466625905 0.0466625905
0.0469546863 0.0469546863 0.0469546863
0.0472467060 0.0472467060 0.0472467060
0.0475386499 0.0475386499 0.0475386499
0.0478305182 0.0478305182 0.0478305182
0.0481223113 0.0481223113 0.0481223113
0.0484140293 0.0484140293 0.0484140293
0.0487056726 0.0487056726 0.0487056726
0.0489972413 0.0489972413 0.0489972413
0.0492887357 0.0492887357 0.0492887357
0.0495801560 0.0495801560 0.0495801560
0.0498715026 0.0498715026 0.0498715026
0.0501627756 0.0501627756 0.0501627756
0.0504539752 0.0504539752 0.0504539752
0.0507451018 0.0507451018 0.0507451018
0.0510361556 0.0510361556 0.0510361556
0.0513271367 0.0513271367 0.0513271367
0.0516180454 0.0516180454 0.0516180454
0.0519088821 0.0519088821 0.0519088821
0.0521996468 0.0521996468 0.0521996468
0.0524903398 0.0524903398 0.0524903398
0.0527809614 0.0527809614 0.0527809614
0.0530715117 0.0530715117 0.0530715117
0.0533619911 0.0533619911 0.0533619911
0.0536523997 0.0536523997 0.0536523997
0.0539427377 0.0539427377 0.0539427377
0.0542330054 0.0542330054 0.0542330054
0.0545232030 0.0545232030 0.0545232030
0.0548133307 0.0548133307 0.0548133307
0.0551033888 0.0551033888 0.0551033888
0.0553933774 0.0553933774 0.0553933774
0.0556832968 0.0556832968 0.0556832968
0.0559731471 0.0559731471 0.0559731471
0.0562629287 0.0562629287 0.0562629287
0.0565526416 0.0565526416 0.0565526416
0.0568422862 0.0568422862 0.0568422862
0.0571318626 0.0571318626 0.0571318626
0.0574213710 0.0574213710 0.0574213710
0.0577108116 0.0577108116 0.0577108116
0.0580001847 0.0580001847 0.0580001847
0.0582894905 0.0582894905 0.0582894905
0.0585787291 0.0585787291 0.0585787291
0.0588679007 0.0588679007 0.0588679007
0.0591570057 0.0591570057 0.0591570057
0.0594460440 0.0594460440 0.0594460440
0.0597350160 0.0597350160 0.0597350160
0.0600239219 0.0600239219 0.0600239219
0.0603127618 0.0603127618 0.0603127618
0.0606015360 0.0606015360 0.0606015360
0.0608902446 0.0608902446 0.0608902446
0.0611788878 0.0611788878 0.0611788878
0.0614674659 0.0614674659 0.0614674659
0.0617559789 0.0617559789 0.0617559789
0.0620444272 0.0620444272 0.0620444272
0.0623328109 0.0623328109 0.0623328109
0.0626211301 0.0626211301 0.0626211301
0.0629093851 0.0629093851 0.0629093851
0.0631975760 0.0631975760 0.0631975760
0.0634857031 0.0634857031 0.0634857031
0.0637737665 0.0637737665 0.0637737665
0.0640617664 0.0640617664 0.0640617664
0.0643497030 0.0643497030 0.0643497030
0.0646375764 0.0646375764 0.0646375764
0.0649253869 0.0649253869 0.0649253869
0.0652131346 0.0652131346 0.0652131346
0.0655008198 0.0655008198 0.0655008198
0.0657884424 0.0657884424 0.0657884424
0.0660760029 0.0660760029 0.0660760029
0.0663635012 0.0663635012 0.0663635012
0.0666509377 0.0666509377 0.0666509377
0.0669383124 0.0669383124 0.0669383124
0.0672256256 0.0672256256 0.0672256256
0.0675128774 0.0675128774 0.0675128774
0.0678000680 0.0678000680 0.0678000680
0.0680871975 0.0680871975 0.0680871975
0.0683742661 0.0683742661 0.0683742661
0.0686612741 0.0686612741 0.0686612741
0.0689482215 0.0689482215 0.0689482215
0.0692351085 0.0692351085 0.0692351085
0.0695219353 0.0695219353 0.0695219353
0.0698087020 0.0698087020 0.0698087020
0.0700954089 0.0700954089 0.0700954089
0.0703820561 0.0703820561 0.0703820561
0.0706686436 0.0706686436 0.0706686436
0.0709551718 0.0709551718 0.0709551718
0.0712416408 0.0712416408 0.0712416408
0.0715280506 0.0715280506 0.0715280506
0.0718144015 0.0718144015 0.0718144015
0.0721006937 0.0721006937 0.0721006937
0.0723869272 0.0723869272 0.0723869272
0.0726731023 0.0726731023 0.0726731023
0.0729592191 0.0729592191 0.0729592191
0.0732452777 0.0732452777 0.0732452777
0.0735312784 0.0735312784 0.0735312784
0.0738172212 0.0738172212 0.0738172212
0.0741031063 0.0741031063 0.0741031063
0.0743889339 0.0743889339 0.0743889339
0.0746747040 0.0746747040 0.0746747040
0.0749604170 0.0749604170 0.0749604170
0.0752460728 0.0752460728 0.0752460728
0.0755316717 0.0755316717 0.0755316717
0.0758172138 0.0758172138 0.0758172138
0.0761026993 0.0761026993 0.0761026993
0.0763881283 0.0763881283 0.0763881283
0.0766735009 0.0766735009 0.0766735009
0.0769588172 0.0769588172 0.0769588172
0.0772440775 0.0772440775 0.0772440775
0.0775292819 0.0775292819 0.0775292819
0.0778144305 0.0778144305 0.0778144305
0.0780995235 0.0780995235 0.0780995235
0.0783845609 0.0783845609 0.0783845609
0.0786695430 0.0786695430 0.0786695430
0.0789544699 0.0789544699 0.0789544699
0.0792393417 0.0792393417 0.0792393417
0.0795241585 0.0795241585 0.0795241585
0.0798089205 0.0798089205 0.0798089205
0.0800936279 0.0800936279 0.0800936279
0.0803782807 0.0803782807 0.0803782807
0.0806628791 0.0806628791 0.0806628791
0.0809474232 0.0809474232 0.0809474232
0.0812319133 0.0812319133 0.0812319133
0.0815163493 0.0815163493 0.0815163493
0.0818007314 0.0818007314 0.0818007314
0.0820850598 0.0820850598 0.0820850598
0.0823693347 0.0823693347 0.0823693347
0.0826535560 0.0826535560 0.0826535560
0.0829377240 0.0829377240 0.0829377240
0.0832218388 0.0832218388 0.0832218388
0.0835059005 0.0835059005 0.0835059005
0.0837899093 0.0837899093 0.0837899093
0.0840738652 0.0840738652 0.0840738652
0.0843577685 0.0843577685 0.0843577685
0.0846416191 0.0846416191 0.0846416191
0.0849254174 0.0849254174 0.0849254174
0.0852091633 0.0852091633 0.0852091633
0.0854928570 0.0854928570 0.0854928570
0.0857764986 0.0857764986 0.0857764986
0.0860600883 0.0860600883 0.0860600883
0.0863436262 0.0863436262 0.0863436262
0.0866271124 0.0866271124 0.0866271124
0.0869105470 0.0869105470 0.0869105470
0.0871939302 0.0871939302 0.0871939302
0.0874772620 0.0874772620 0.0874772620
0.0877605426 0.0877605426 0.0877605426
0.0880437721 0.0880437721 0.0880437721
0.0883269507 0.0883269507 0.0883269507
0.0886100784 0.0886100784 0.0886100784
0.0888931553 0.0888931553 0.0888931553
0.0891761817 0.0891761817 0.0891761817
0.0894591575 0.0894591575 0.0894591575
0.0897420830 0.0897420830 0.0897420830
0.0900249582 0.0900249582 0.0900249582
0.0903077832 0.0903077832 0.0903077832
0.0905905582 0.0905905582 0.0905905582
0.0908732833 0.0908732833 0.0908732833
0.0911559586 0.0911559586 0.0911559586
0.0914385841 0.0914385841 0.0914385841
0.0917211601 0.0917211601 0.0917211601
0.0920036867 0.0920036867 0.0920036867
0.0922861639 0.0922861639 0.0922861639
0.0925685918 0.0925685918 0.0925685918
0.0928509706 0.0928509706 0.0928509706
0.0931333004 0.0931333004 0.0931333004
0.0934155813 0.0934155813 0.0934155813
0.0936978134 0.0936978134 0.0936978134
0.0939799968 0.0939799968 0.0939799968
0.0942621316 0.0942621316 0.0942621316
0.0945442179 0.0945442179 0.0945442179
0.0948262559 0.0948262559 0.0948262559
0.0951082456 0.0951082456 0.0951082456
0.0953901872 0.0953901872 0.0953901872
0.0956720807 0.0956720807 0.0956720807
0.0959539263 0.0959539263 0.0959539263
0.0962357241 0.0962357241 0.0962357241
0.0965174741 0.0965174741 0.0965174741
0.0967991765 0.0967991765 0.0967991765
0.0970808314 0.0970808314 0.0970808314
0.0973624389 0.0973624389 0.0973624389
0.0976439990 0.0976439990 0.0976439990
0.0979255120 0.0979255120 0.0979255120
0.0982069779 0.0982069779 0.0982069779
0.0984883967 0.0984883967 0.0984883967
0.0987697687 0.0987697687 0.0987697687
0.0990510939 0.0990510939 0.0990510939
0.0993323723 0.0993323723 0.0993323723
0.0996136042 0.0996136042 0.0996136042
0.0998947896 0.0998947896 0.0998947896
0.1001759285 0.1001759285 0.1001759285
0.1004570212 0.1004570212 0.1004570212
0.1007380677 0.1007380677 0.1007380677
0.1010190681 0.1010190681 0.1010190681
0.1013000225 0.1013000225 0.1013000225
0.1015809310 0.1015809310 0.1015809310
0.1018617936 0.1018617936 0.1018617936
0.1021426106 0.1021426106 0.1021426106
0.1024233819 0.1024233819 0.1024233819
0.1027041078 0.1027041078 0.1027041078
0.1029847882 0.1029847882 0.1029847882
0.1032654233 0.1032654233 0.1032654233
0.1035460131 0.1035460131 0.1035460131
0.1038265578 0.1038265578 0.1038265578
0.1041070575 0.1041070575 0.1041070575
0.1043875122 0.1043875122 0.1043875122
0.1046679221 0.1046679221 0.1046679221
0.1049482872 0.1049482872 0.1049482872
0.1052286076 0.1052286076 0.1052286076
0.1055088835 0.1055088835 0.1055088835
0.1057891149 0.1057891149 0.1057891149
0.1060693019 0.1060693019 0.1060693019
0.1063494446 0.1063494446 0.1063494446
0.1066295430 0.1066295430 0.1066295430
0.1069095974 0.1069095974 0.1069095974
0.1071896077 0.1071896077 0.1071896077
0.1074695741 0.1074695741 0.1074695741
0.1077494966 0.1077494966 0.1077494966
0.1080293754 0.1080293754 0.1080293754
0.1083092105 0.1083092105 0.1083092105
0.1085890020 0.1085890020 0.1085890020
0.1088687500 0.1088687500 0.1088687500
0.1091484546 0.1091484546 0.1091484546
0.1094281159 0.1094281159 0.1094281159
0.1097077340 0.1097077340 0.1097077340
0.1099873089 0.1099873089 0.1099873089
0.1102668407 0.1102668407 0.1102668407
0.1105463296 0.1105463296 0.1105463296
0.1108257755 0.1108257755 0.1108257755
0.1111051787 0.1111051787 0.1111051787
0.1113845392 0.1113845392 0.1113845392
0.1116638570 0.1116638570 0.1116638570
0.1119431323 0.1119431323 0.1119431323
0.1122223651 0.1122223651 0.1122223651
0.1125015555 0.1125015555 0.1125015555
0.1127807036 0.1127807036 0.1127807036
0.1130598095 0.1130598095 0.1130598095
0.1133388733 0.1133388733 0.1133388733
0.1136178950 0.1136178950 0.1136178950
0.1138968748 0.1138968748 0.1138968748
0.1141758126 0.1141758126 0.1141758126
0.1144547087 0.1144547087 0.1144547087
0.1147335631 0.1147335631 0.1147335631
0.1150123758 0.1150123758 0.1150123758
0.1152911469 0.1152911469 0.1152911469
0.1155698766 0.1155698766 0.1155698766
0.1158485648 0.1158485648 0.1158485648
0.1161272118 0.1161272118 0.1161272118
0.1164058175 0.1164058175 0.1164058175
0.1166843820 0.1166843820 0.1166843820
0.1169629055 0.1169629055 0.1169629055
0.1172413879 0.1172413879 0.1172413879
0.1175198294 0.1175198294 0.1175198294
0.1177982301 0.1177982301 0.1177982301
0.1180765900 0.1180765900 0.1180765900
0.1183549092 0.1183549092 0.1183549092
0.1186331878 0.1186331878 0.1186331878
0.1189114259 0.1189114259 0.1189114259
0.1191896235 0.1191896235 0.1191896235
0.1194677807 0.1194677807 0.1194677807
0.1197458976 0.1197458976 0.1197458976
0.1200239743 0.1200239743 0.1200239743
0.1203020108 0.1203020108 0.1203020108
0.1205800072 0.1205800072 0.1205800072
0.1208579636 0.1208579636 0.1208579636
0.1211358801 0.1211358801 0.1211358801
0.1214137567 0.1214137567 0.1214137567
0.1216915935 0.1216915935 0.1216915935
0.1219693907 0.1219693907 0.1219693907
0.1222471482 0.1222471482 0.1222471482
0.1225248661 0.1225248661 0.1225248661
0.1228025445 0.1228025445 0.1228025445
0.1230801835 0.1230801835 0.1230801835
0.1233577832 0.1233577832 0.1233577832
0.1236353436 0.1236353436 0.1236353436
0.1239128648 0.1239128648 0.1239128648
0.1241903469 0.1241903469 0.1241903469
0.1244677899 0.1244677899 0.1244677899
0.1247451939 0.1247451939 0.1247451939
0.1250225590 0.1250225590 0.1250225590
0.1252998853 0.1252998853 0.1252998853
0.1255771728 0.1255771728 0.1255771728
0.1258544216 0.1258544216 0.1258544216
0.1261316318 0.1261316318 0.1261316318
0.1264088034 0.1264088034 0.1264088034
0.1266859365 0.1266859365 0.1266859365
0.1269630311 0.1269630311 0.1269630311
0.1272400875 0.1272400875 0.1272400875
0.1275171055 0.1275171055 0.1275171055
0.1277940853 0.1277940853 0.1277940853
0.1280710270 0.1280710270 0.1280710270
0.1283479306 0.1283479306 0.1283479306
0.1286247962 0.1286247962 0.1286247962
0.1289016238 0.1289016238 0.1289016238
0.1291784136 0.1291784136 0.1291784136
0.1294551655 0.1294551655 0.1294551655
0.1297318797 0.1297318797 0.1297318797
0.1300085562 0.1300085562 0.1300085562
